flaticon/constructions/screwdriver-3.svg

<svg xmlns="http://www.w3.org/2000/svg" width="32" height="32" viewBox="0 0 24 24">
    <path d="M 22.589844 1.429688 C 20.710938 -0.449219 17.671875 -0.449219 15.792969 1.429688 L 8.15625 9.066406 C 8.078125 9.144531 8.039062 9.226562 8.039062 9.347656 C 8.039062 9.433594 8.058594 9.496094 8.097656 9.554688 C 8.121094 9.871094 8.109375 10.273438 7.917969 10.464844 C 7.679688 10.664062 7.078125 10.625 6.796875 10.625 C 6.691406 10.625 6.585938 10.660156 6.503906 10.730469 C 6.480469 10.746094 6.460938 10.765625 6.4375 10.785156 L 5.320312 11.90625 C 5.238281 11.984375 5.199219 12.066406 5.199219 12.183594 C 5.199219 12.304688 5.238281 12.386719 5.320312 12.464844 L 7.585938 14.714844 L 2.71875 19.582031 L 1.042969 20.699219 C 0.960938 20.742188 0.921875 20.78125 0.882812 20.859375 L 0.0429688 22.859375 C -0.0390625 23.019531 0 23.179688 0.121094 23.300781 L 0.679688 23.859375 C 0.761719 23.9375 0.839844 23.980469 0.960938 23.980469 C 1.042969 23.980469 1.082031 23.980469 1.160156 23.9375 L 3.121094 23.101562 C 3.160156 23.058594 3.238281 23.019531 3.28125 22.941406 L 4.398438 21.261719 L 9.269531 16.390625 L 11.554688 18.660156 C 11.636719 18.742188 11.714844 18.78125 11.835938 18.78125 C 11.957031 18.78125 12.035156 18.742188 12.074219 18.660156 L 13.195312 17.542969 C 13.214844 17.523438 13.234375 17.5 13.25 17.476562 C 13.320312 17.394531 13.355469 17.289062 13.355469 17.183594 C 13.316406 16.863281 13.273438 16.304688 13.515625 16.0625 C 13.71875 15.890625 14.191406 15.898438 14.496094 15.902344 C 14.546875 15.929688 14.605469 15.941406 14.675781 15.941406 C 14.753906 15.941406 14.875 15.902344 14.953125 15.824219 L 22.589844 8.226562 C 24.46875 6.347656 24.46875 3.308594 22.589844 1.429688 Z M 2.679688 22.460938 L 1.082031 23.140625 L 0.882812 22.941406 L 1.5625 21.339844 L 2.878906 20.460938 L 3.558594 21.140625 Z M 4.078125 20.460938 L 3.519531 19.902344 L 8.148438 15.273438 L 8.707031 15.832031 Z M 11.835938 17.78125 L 6.199219 12.144531 L 6.757812 11.585938 L 12.375 17.242188 Z M 12.957031 15.542969 C 12.753906 15.742188 12.636719 16.023438 12.59375 16.304688 L 7.679688 11.386719 C 7.957031 11.34375 8.238281 11.226562 8.4375 11.027344 C 8.636719 10.824219 8.757812 10.546875 8.796875 10.265625 L 13.714844 15.183594 C 13.433594 15.222656 13.15625 15.34375 12.957031 15.542969 Z M 21.992188 7.628906 L 14.675781 14.945312 L 9.039062 9.304688 L 16.394531 1.988281 C 17.953125 0.429688 20.472656 0.429688 22.03125 1.988281 C 23.589844 3.550781 23.589844 6.066406 21.992188 7.628906 Z M 21.992188 7.628906"/>
    <path d="M21.472656 2.507812C21.3125 2.351562 21.070312 2.351562 20.910156 2.507812L12.515625 10.90625C12.355469 11.066406 12.355469 11.304688 12.515625 11.464844 12.59375 11.546875 12.675781 11.585938 12.796875 11.585938 12.914062 11.585938 12.996094 11.546875 13.074219 11.464844L21.472656 3.070312C21.632812 2.910156 21.632812 2.667969 21.472656 2.507812zM19.074219 2.109375C18.914062 1.949219 18.671875 1.949219 18.511719 2.109375L10.917969 9.707031C10.757812 9.867188 10.757812 10.105469 10.917969 10.265625 10.996094 10.347656 11.078125 10.386719 11.195312 10.386719 11.316406 10.386719 11.394531 10.347656 11.476562 10.265625L19.074219 2.667969C19.230469 2.507812 19.230469 2.269531 19.074219 2.109375zM21.3125 4.910156L13.714844 12.503906C13.554688 12.664062 13.554688 12.90625 13.714844 13.066406 13.796875 13.144531 13.875 13.183594 13.996094 13.183594 14.113281 13.183594 14.195312 13.144531 14.273438 13.066406L21.871094 5.46875C22.03125 5.308594 22.03125 5.070312 21.871094 4.910156 21.710938 4.75 21.472656 4.75 21.3125 4.910156zM21.3125 4.910156"/>
</svg>

<svg xmlns="http://www.w3.org/2000/svg" width="32" height="32" viewBox="0 0 24 24">
    <path d="M22.59 1.43a4.802 4.802 0 0 0-6.797 0L8.156 9.066a.366.366 0 0 0-.117.282c0 .086.02.148.059.207.023.316.011.718-.18.91-.238.2-.84.16-1.121.16a.45.45 0 0 0-.293.105c-.024.016-.043.036-.066.055L5.32 11.906a.353.353 0 0 0-.12.278c0 .12.038.203.12.28l2.266 2.25-4.867 4.868-1.676 1.117a.32.32 0 0 0-.16.16l-.84 2c-.082.16-.043.32.078.442l.559.558c.082.078.16.121.28.121.083 0 .122 0 .2-.043l1.961-.835c.04-.043.117-.082.16-.16l1.117-1.68L9.27 16.39l2.285 2.27c.082.081.16.12.28.12.122 0 .2-.039.24-.12l1.12-1.118a.45.45 0 0 0 .055-.066.45.45 0 0 0 .105-.293c-.039-.32-.082-.88.16-1.122.204-.171.676-.164.981-.16.05.028.11.04.18.04.078 0 .199-.04.277-.118l7.637-7.597a4.802 4.802 0 0 0 0-6.797zM2.68 22.46l-1.598.68-.2-.199.68-1.601 1.317-.88.68.68zm1.398-2l-.558-.558 4.628-4.629.559.559zm7.758-2.679l-5.637-5.636.559-.56 5.617 5.657zm1.121-2.238c-.203.2-.32.48-.363.762L7.68 11.387c.277-.043.558-.16.758-.36.199-.203.32-.48.359-.761l4.918 4.918c-.281.039-.559.16-.758.359zm9.035-7.914l-7.316 7.316-5.637-5.64 7.356-7.317a3.982 3.982 0 0 1 5.636 0 3.952 3.952 0 0 1-.039 5.64zm0 0"/>
    <path d="M21.473 2.508a.396.396 0 0 0-.563 0l-8.394 8.398a.385.385 0 0 0 0 .559c.078.082.16.12.28.12.118 0 .2-.038.278-.12l8.399-8.395a.39.39 0 0 0 0-.562zm0 0M19.074 2.11a.39.39 0 0 0-.562 0l-7.594 7.597a.385.385 0 0 0 0 .559c.078.082.16.12.277.12.121 0 .2-.038.282-.12l7.597-7.598a.391.391 0 0 0 0-.559zm0 0M21.313 4.91l-7.598 7.594a.39.39 0 0 0 0 .562c.082.079.16.118.281.118.117 0 .2-.04.277-.118l7.598-7.597a.385.385 0 0 0 0-.559.385.385 0 0 0-.558 0zm0 0"/>
</svg>
